src/assets/icons/fa/toggle-on.svg

<?xml version="1.0" encoding="utf-8"?>
<svg width="2048" height="1792" viewBox="0 0 2048 1792" xmlns="http://www.w3.org/2000/svg"><path d="M0 896q0-130 51-248.5t136.5-204 204-136.5 248.5-51h768q130 0 248.5 51t204 136.5 136.5 204 51 248.5-51 248.5-136.5 204-204 136.5-248.5 51h-768q-130 0-248.5-51t-204-136.5-136.5-204-51-248.5zm1408 512q104 0 198.5-40.5t163.5-109.5 109.5-163.5 40.5-198.5-40.5-198.5-109.5-163.5-163.5-109.5-198.5-40.5-198.5 40.5-163.5 109.5-109.5 163.5-40.5 198.5 40.5 198.5 109.5 163.5 163.5 109.5 198.5 40.5z"/></svg>

<svg width="2048" height="1792" xmlns="http://www.w3.org/2000/svg"><path d="M0 896q0-130 51-248.5t136.5-204 204-136.5T640 256h768q130 0 248.5 51t204 136.5 136.5 204 51 248.5-51 248.5-136.5 204-204 136.5-248.5 51H640q-130 0-248.5-51t-204-136.5-136.5-204T0 896zm1408 512q104 0 198.5-40.5T1770 1258t109.5-163.5T1920 896t-40.5-198.5T1770 534t-163.5-109.5T1408 384t-198.5 40.5T1046 534 936.5 697.5 896 896t40.5 198.5T1046 1258t163.5 109.5T1408 1408z"/></svg>
